src/icons/folder-prisma.svg

<?xml version="1.0" encoding="UTF-8" standalone="no"?>
<svg
   version="1.2"
   viewBox="0 0 16 16"
   width="16"
   height="16"
   id="svg2"
   sodipodi:docname="folderPrismatest.svg"
   inkscape:version="1.4 (e7c3feb100, 2024-10-09)"
   xmlns:inkscape="http://www.inkscape.org/namespaces/inkscape"
   xmlns:sodipodi="http://sodipodi.sourceforge.net/DTD/sodipodi-0.dtd"
   xmlns="http://www.w3.org/2000/svg"
   xmlns:svg="http://www.w3.org/2000/svg">
  <defs
     id="defs2">
    <inkscape:path-effect
       effect="fillet_chamfer"
       id="path-effect3"
       is_visible="true"
       lpeversion="1"
       nodesatellites_param="F,0,0,1,0,0,0,1 @ F,0,0,1,0,0,0,1 @ F,0,0,1,0,0,0,1 @ F,0,0,1,0,0,0,1 @ F,0,0,1,0,0,0,1 @ F,0,0,1,0,0,0,1 @ F,0,0,1,0,0,0,1 @ F,0,0,1,0,0,0,1 @ F,0,0,1,0,0,0,1 @ F,0,0,1,0,0,0,1"
       radius="0"
       unit="px"
       method="auto"
       mode="F"
       chamfer_steps="1"
       flexible="false"
       use_knot_distance="true"
       apply_no_radius="true"
       apply_with_radius="true"
       only_selected="false"
       hide_knots="false" />
  </defs>
  <sodipodi:namedview
     id="namedview2"
     pagecolor="#505050"
     bordercolor="#eeeeee"
     borderopacity="1"
     inkscape:showpageshadow="0"
     inkscape:pageopacity="0"
     inkscape:pagecheckerboard="0"
     inkscape:deskcolor="#505050"
     inkscape:zoom="37.75"
     inkscape:cx="7.986755"
     inkscape:cy="8"
     inkscape:window-width="1316"
     inkscape:window-height="755"
     inkscape:window-x="20"
     inkscape:window-y="20"
     inkscape:window-maximized="0"
     inkscape:current-layer="svg2" />
  <title
     id="title1">folder</title>
  <style
     id="style1">
		.s0 { fill: #8080a0 } 
		.s1 { fill: #5bafd4 } 
	</style>
  <path
     id="path1"
     class="s0"
     d="M 4.1992188 1 C 3.0992187 1 2.4996094 0.99921875 2.0996094 1.1992188 C 1.6996094 1.3992188 1.3992188 1.6996094 1.1992188 2.0996094 C 0.99921875 2.4996094 1 3.0992187 1 4.1992188 L 1 9 C 1 10.4 1.0007812 11.099609 1.3007812 11.599609 C 1.5007812 12.099609 1.9003906 12.499219 2.4003906 12.699219 C 2.9003906 12.999219 3.6 13 5 13 L 5.9628906 13 L 5.2441406 11.814453 L 5.2441406 10.277344 L 9.1386719 4.2910156 L 9.9609375 3.7617188 L 10.861328 3.734375 L 11.841797 4.6367188 L 14 8.890625 L 14 7 C 14 5.6 13.999219 4.9003906 13.699219 4.4003906 C 13.499219 3.9003906 13.099609 3.5007813 12.599609 3.3007812 C 12.099609 3.0007813 11.4 3 10 3 L 8.3007812 3 L 8.0996094 3 C 8.0329427 3 7.9670573 2.9670573 7.9003906 2.9003906 L 7.8007812 2.8007812 L 7.1992188 2.1992188 C 6.6992188 1.6992188 6.5007813 1.5003906 6.3007812 1.4003906 C 6.0341146 1.2670573 5.7666667 1.166276 5.5 1.0996094 C 5.3 0.99960938 5.0007813 1 4.3007812 1 L 4.1992188 1 z " />
  <path
     class="s1"
     d="m13.9 11.8l-0.2-0.3-2.7-5.6q0-0.1-0.1-0.1-0.1-0.1-0.2-0.2 0 0-0.1-0.1-0.1 0-0.2 0 0 0 0 0-0.1 0-0.2 0-0.1 0-0.2 0.1 0 0-0.1 0.1-0.1 0.1-0.1 0.1l-3.1 4.9q-0.1 0.1-0.1 0.2 0 0.1 0 0.2 0 0.1 0 0.2 0 0.1 0.1 0.2l1.5 2.3q0.1 0 0.1 0.1 0.1 0 0.2 0.1 0 0 0.1 0 0.1 0.1 0.2 0.1 0 0 0.1 0 0 0 0 0 0 0 0.1-0.1 0 0 0 0l4.4-1.2q0.1 0 0.2-0.1 0 0 0.1-0.1 0 0 0.1-0.1 0-0.1 0.1-0.1 0-0.1 0-0.1 0-0.1 0-0.2 0-0.1 0-0.1 0-0.1 0-0.2zm-1.1 0.2l-3.5 1 1.3-5.8 2.3 4.8z"
     id="path2" />
</svg>

<svg xmlns="http://www.w3.org/2000/svg" width="16" height="16" version="1.2"><path d="M4.2 1c-1.1 0-1.7 0-2.1.2q-.6.3-.9.9c-.2.4-.2 1-.2 2.1V9c0 1.4 0 2.1.3 2.6.2.5.6.9 1.1 1.1.5.3 1.2.3 2.6.3h.963l-.719-1.186v-1.537L9.14 4.291l.822-.53.9-.027.98.903L14 8.89V7c0-1.4 0-2.1-.3-2.6-.2-.5-.6-.9-1.1-1.1C12.1 3 11.4 3 10 3H8.1q-.1 0-.2-.1l-.1-.1-.6-.6c-.5-.5-.7-.7-.9-.8a4 4 0 0 0-.8-.3C5.3 1 5 1 4.3 1z" style="fill:#8080a0"/><path d="m13.9 11.8-.2-.3L11 5.9q0-.1-.1-.1l-.2-.2-.1-.1h-.4q-.1 0-.2.1l-.1.1-.1.1-3.1 4.9q-.1.1-.1.2v.4q0 .1.1.2l1.5 2.3q.1 0 .1.1.1 0 .2.1h.1q.1.1.2.1h.1L9 14l4.4-1.2q.1 0 .2-.1l.1-.1.1-.1q0-.1.1-.1zm-1.1.2-3.5 1 1.3-5.8 2.3 4.8z" style="fill:#5bafd4"/></svg>
